icons/1_Primary/OPNsense.svg

<svg xmlns="http://www.w3.org/2000/svg" width="1024" height="1024" fill="none">
   <g clip-path="url(#a)">
      <path fill="#F8C18C" d="M512 1024c282.77 0 512-229.23 512-512S794.77 0 512 0 0 229.23 0 512s229.23 512 512 512Z"/>
      <path fill="#fff" d="m668.21 583-98.86-53.13v-36.03l98.86-52.75v35.68l-32.05 17.07h101.56v36.07H636.16L668.21 547v36Zm-98.86-17.45v36.07l66.48 35.68 32.38 17.38L703 673.37v18.27c0 .51 0 1.14-.1 1.76 0 8-4.16 11.75-8.39 13.48l-.67.26a20.317 20.317 0 0 1-4.53 1l-.8.07H321v-34.84l34.76-18.65 32.38-17.38 66.48-35.68v-36.07L286.28 656v88h400.08c27.94 0 50.92-23.25 51.32-52v-36l-168.33-90.45Zm-213.56 96.36V673h312.42v-11.1l-45.76-24.56H401.57l-45.78 24.57Zm341.74-96.32h-23.89v20.33l23.89 12.83v-33.16ZM454.65 458.41v-36.07l-66.48-35.68-32.38-17.38L321 350.63v-18.27c0-.51 0-1.14.1-1.76 0-8 4.16-11.75 8.39-13.48l.67-.26a20.317 20.317 0 0 1 4.53-1l.8-.07H703v34.94l-34.76 18.65-32.38 17.38-66.48 35.68v36.07L737.72 368v-88H337.64c-27.94 0-50.92 23.25-51.32 52v36l168.33 90.41Zm213.56-96.32V351H355.79v11.1l45.76 24.56h220.88l45.78-24.57Zm-293.44 60.64h-39.63l52.32 28.08 2.35 1.26 11.81 6.34h39.63l-11.81-6.34-21.44-11.5-21.43-11.5-11.8-6.34Zm-48.3 35.68h23.89v-20.33l-23.89-12.83v33.16ZM355.79 583l98.86-53.13v-36.03l-98.86-52.75v35.68l32.05 17.07H286.28v36.07h101.56L355.79 547v36Zm30.79 11.89L408 583.43l21.43-11.5 11.81-6.34h-39.62l-11.81 6.34-2.35 1.26-52.32 28.08h39.63l11.81-6.38Zm-60.11 3.82 23.89-12.83v-20.29h-23.89v33.12Zm311-169.53L616 440.72l-21.43 11.5-11.81 6.34h39.63l11.81-6.34 2.35-1.26 52.32-28.08h-39.64l-11.76 6.3Zm60.11-3.82-23.89 12.83v20.33h23.89v-33.16Zm-48.3 175.87h39.63l-52.32-28.08-2.35-1.26-11.81-6.34h-39.68l11.81 6.34L616 583.43l21.43 11.5 11.85 6.3Z"/>
   </g>
   <defs>
      <clipPath id="a">
         <path fill="#fff" d="M0 0h1024v1024H0z"/>
      </clipPath>
   </defs>
</svg>

<svg width="1024" height="1024" viewBox="0 0 1024 1024" fill="none" xmlns="http://www.w3.org/2000/svg">
<g clip-path="url(#clip0_2_3054)">
<path d="M512 1024C794.77 1024 1024 794.77 1024 512C1024 229.23 794.77 0 512 0C229.23 0 0 229.23 0 512C0 794.77 229.23 1024 512 1024Z" fill="#F8C18C"/>
<path d="M668.21 583L569.35 529.87V493.84L668.21 441.09V476.77L636.16 493.84H737.72V529.91H636.16L668.21 547V583ZM569.35 565.55V601.62L635.83 637.3L668.21 654.68L703 673.37V691.64C703 692.15 703 692.78 702.9 693.4C702.9 701.4 698.74 705.15 694.51 706.88L693.84 707.14C692.373 707.645 690.853 707.981 689.31 708.14L688.51 708.21H321V673.37L355.76 654.72L388.14 637.34L454.62 601.66V565.59L286.28 656V744H686.36C714.3 744 737.28 720.75 737.68 692V656L569.35 565.55ZM355.79 661.91V673H668.21V661.9L622.45 637.34H401.57L355.79 661.91ZM697.53 565.59H673.64V585.92L697.53 598.75V565.59ZM454.65 458.41V422.34L388.17 386.66L355.79 369.28L321 350.63V332.36C321 331.85 321 331.22 321.1 330.6C321.1 322.6 325.26 318.85 329.49 317.12L330.16 316.86C331.627 316.355 333.147 316.019 334.69 315.86L335.49 315.79H703V350.73L668.24 369.38L635.86 386.76L569.38 422.44V458.51L737.72 368V280H337.64C309.7 280 286.72 303.25 286.32 332V368L454.65 458.41ZM668.21 362.09V351H355.79V362.1L401.55 386.66H622.43L668.21 362.09ZM374.77 422.73H335.14L387.46 450.81L389.81 452.07L401.62 458.41H441.25L429.44 452.07L408 440.57L386.57 429.07L374.77 422.73ZM326.47 458.41H350.36V438.08L326.47 425.25V458.41ZM355.79 583L454.65 529.87V493.84L355.79 441.09V476.77L387.84 493.84H286.28V529.91H387.84L355.79 547V583ZM386.58 594.89L408 583.43L429.43 571.93L441.24 565.59H401.62L389.81 571.93L387.46 573.19L335.14 601.27H374.77L386.58 594.89ZM326.47 598.71L350.36 585.88V565.59H326.47V598.71ZM637.47 429.18L616 440.72L594.57 452.22L582.76 458.56H622.39L634.2 452.22L636.55 450.96L688.87 422.88H649.23L637.47 429.18ZM697.58 425.36L673.69 438.19V458.52H697.58V425.36ZM649.28 601.23H688.91L636.59 573.15L634.24 571.89L622.43 565.55H582.75L594.56 571.89L616 583.43L637.43 594.93L649.28 601.23Z" fill="white"/>
</g>
<defs>
<clipPath id="clip0_2_3054">
<rect width="1024" height="1024" fill="white"/>
</clipPath>
</defs>
</svg>
